exported-svg/navigation.svg

<svg height="24" viewBox="0 0 24 24" width="24" xmlns="http://www.w3.org/2000/svg"><path d="m10.0877879 13.9142062-7.70895721-1.9272393c-.45546964-.1138674-.51706885-.735959-.09277536-.9369402l18.99999997-8.99999996c.4245876-.20112044.8670326.24132449.6659121.66591209l-9 18.99999997c-.2009811.4242935-.8230727.3626943-.9369402-.0927753zm-6.11101494-2.5585301 6.64459334 1.6611483c.1791426.0447857.3190178.1846608.3638034.3638034l1.6611484 6.6445934 7.8025906-16.47213574z"/></svg>

<?xml version="1.0" encoding="UTF-8"?>
<svg width="24px" height="24px" viewBox="0 0 24 24" version="1.1" xmlns="http://www.w3.org/2000/svg" xmlns:xlink="http://www.w3.org/1999/xlink">
    <!-- Generator: Sketch 55.2 (78181) - https://sketchapp.com -->
    <title>navigation</title>
    <desc>Created with Sketch.</desc>
    <g id="navigation" stroke="none" stroke-width="1" fill="none" fill-rule="evenodd">
        <path d="M10.0877879,13.9142062 L2.37883069,11.9869669 C1.92336105,11.8730995 1.86176184,11.2510079 2.28605533,11.0500267 L21.2860553,2.05002674 C21.7106429,1.8489063 22.1530879,2.29135123 21.9519674,2.71593883 L12.9519674,21.7159388 C12.7509863,22.1402323 12.1288947,22.0786331 12.0150272,21.6231635 L10.0877879,13.9142062 Z M3.97677296,11.3556761 L10.6213663,13.0168244 C10.8005089,13.0616101 10.9403841,13.2014852 10.9851697,13.3806278 L12.6463181,20.0252212 L20.4489087,3.55308546 L3.97677296,11.3556761 Z" id="Shape" fill="#000000" fill-rule="nonzero"></path>
    </g>
</svg>
